X:513
T:Round O. (p)1703.PLFD.512
T:New Round O,The. (p)1703.PLFD.512
M:4/4
L:1/8
Q:1/2=80
S:Playford, Dancing Master,12th Ed.,1703.
O:England
Z:Chris Partington.
K:C
ed |\
cBAc B2^G2 | A4B4 | c2dc BcAc | B4E2ed |\
cBAcB2^G2 | A4B4 | c2(dc)B3A | A4A2 :|
|: ag |\
a2e2f2g2 | f4e2fe | d2c2B2c2 | c3BA2ef |\
g2c2g2ag | f2A2f2gf | e2dcd2B2 | c4c2 |
| ed |\
cBAc B2 ^G2 | A4B4 | c2dc BcAc | B4E2ed |\
cBAcB2^G2 | A4B4 | c2dcB3A | A6e2 |
a2g2a2ef | f3ed2ef | g2e2defg | e2c4fe |\
d2edc2de | fedcB2c2 | A2AcB2A2 | ^G6E2 :|
